client/public/media/icons/colophon.svg

<svg viewBox="0 0 40 40" xmlns="http://www.w3.org/2000/svg"><g fill="#333" fill-rule="evenodd"><path d="m10 12v16h2v-16h-2m2 14v2h3v-2h-3m0-14v2h3v-2h-3"/><path d="m28 12v16h2v-16h-2m-3 14v2h3v-2h-3m0-14v2h3v-2h-3"/></g></svg>

<?xml version="1.0" encoding="UTF-8" standalone="no"?>
<svg width="40px" height="40px" viewBox="0 0 40 40" version="1.1" xmlns="http://www.w3.org/2000/svg" xmlns:xlink="http://www.w3.org/1999/xlink" xmlns:sketch="http://www.bohemiancoding.com/sketch/ns">
    <!-- Generator: Sketch 3.1.1 (8761) - http://www.bohemiancoding.com/sketch -->
    <title>colophon</title>
    <desc>Created with Sketch.</desc>
    <defs></defs>
    <g id="Page-1" stroke="none" stroke-width="1" fill="none" fill-rule="evenodd" sketch:type="MSPage">
        <g id="colophon" sketch:type="MSArtboardGroup" fill="#333333">
            <g id="icon" sketch:type="MSLayerGroup">
                <path d="M10,12 L10,28 L12,28 L12,12 L10,12 Z M12,26 L12,28 L15,28 L15,26 L12,26 Z M12,12 L12,14 L15,14 L15,12 L12,12 Z" id="parenthesis_l" sketch:type="MSShapeGroup"></path>
                <path d="M28,12 L28,28 L30,28 L30,12 L28,12 Z M25,26 L25,28 L28,28 L28,26 L25,26 Z M25,12 L25,14 L28,14 L28,12 L25,12 Z" id="parenthesis_r" sketch:type="MSShapeGroup"></path>
            </g>
        </g>
    </g>
</svg>
